X: 1
T: Brasoveanca
O: Romania
Z: 2014 John Chambers <jc:trillian.mit.edu>
S: handwritten copy from Yaron Shragai
N: "Dansuri populare"
Q: "Moderato"
M: 2/4
L: 1/8
K: F
"B"|: "F"FA  cA | "G"G E3 | "G7"GG (F/E/)D |1 "C"E G3 :|2 "C"C4 |]
"A"|: "C"G,C EA |    G E3 | "G7"GG (F/E/)D |1 "C"E G3 :|2 "C"C4 |]
